images/3233182.svg

<?xml version="1.0" encoding="UTF-8"?>
<svg xmlns="http://www.w3.org/2000/svg" xmlns:xlink="http://www.w3.org/1999/xlink" width="300pt" height="300pt" viewBox="0 0 300 300" version="1.1">
<defs>
<g>
<symbol overflow="visible" id="glyph0-0">
<path style="stroke:none;" d="M 0.75 2.65625 L 0.75 -10.578125 L 8.25 -10.578125 L 8.25 2.65625 Z M 1.59375 1.8125 L 7.40625 1.8125 L 7.40625 -9.734375 L 1.59375 -9.734375 Z M 1.59375 1.8125 "/>
</symbol>
<symbol overflow="visible" id="glyph0-1">
<path style="stroke:none;" d="M 5.90625 -9.9375 C 4.832031 -9.9375 3.976562 -9.535156 3.34375 -8.734375 C 2.71875 -7.929688 2.40625 -6.835938 2.40625 -5.453125 C 2.40625 -4.078125 2.71875 -2.988281 3.34375 -2.1875 C 3.976562 -1.382812 4.832031 -0.984375 5.90625 -0.984375 C 6.976562 -0.984375 7.828125 -1.382812 8.453125 -2.1875 C 9.085938 -2.988281 9.40625 -4.078125 9.40625 -5.453125 C 9.40625 -6.835938 9.085938 -7.929688 8.453125 -8.734375 C 7.828125 -9.535156 6.976562 -9.9375 5.90625 -9.9375 Z M 5.90625 -11.140625 C 7.4375 -11.140625 8.660156 -10.625 9.578125 -9.59375 C 10.503906 -8.5625 10.96875 -7.179688 10.96875 -5.453125 C 10.96875 -3.734375 10.503906 -2.359375 9.578125 -1.328125 C 8.660156 -0.296875 7.4375 0.21875 5.90625 0.21875 C 4.375 0.21875 3.144531 -0.289062 2.21875 -1.3125 C 1.300781 -2.34375 0.84375 -3.722656 0.84375 -5.453125 C 0.84375 -7.179688 1.300781 -8.5625 2.21875 -9.59375 C 3.144531 -10.625 4.375 -11.140625 5.90625 -11.140625 Z M 5.90625 -11.140625 "/>
</symbol>
<symbol overflow="visible" id="glyph0-2">
<path style="stroke:none;" d="M 1.46875 -10.9375 L 3.46875 -10.9375 L 8.3125 -1.78125 L 8.3125 -10.9375 L 9.75 -10.9375 L 9.75 0 L 7.75 0 L 2.90625 -9.140625 L 2.90625 0 L 1.46875 0 Z M 1.46875 -10.9375 "/>
</symbol>
</g>
</defs>
<g id="surface34637">
<rect x="0" y="0" width="300" height="300" style="fill:rgb(100%,100%,100%);fill-opacity:1;stroke:none;"/>
<path style="fill:none;stroke-width:1.2;stroke-linecap:butt;stroke-linejoin:miter;stroke:rgb(0%,0%,0%);stroke-opacity:1;stroke-miterlimit:10;" d="M 59.09375 60.84375 L 49.289062 75.382812 "/>
<path style="fill:none;stroke-width:1.2;stroke-linecap:butt;stroke-linejoin:miter;stroke:rgb(100%,0%,0%);stroke-opacity:1;stroke-miterlimit:10;" d="M 49.289062 75.382812 L 39.484375 89.917969 "/>
<path style="fill:none;stroke-width:1.2;stroke-linecap:butt;stroke-linejoin:miter;stroke:rgb(100%,0%,0%);stroke-opacity:1;stroke-miterlimit:10;" d="M 39.484375 89.917969 L 47.171875 105.675781 "/>
<path style="fill:none;stroke-width:1.2;stroke-linecap:butt;stroke-linejoin:miter;stroke:rgb(0%,0%,0%);stroke-opacity:1;stroke-miterlimit:10;" d="M 47.171875 105.675781 L 54.859375 121.433594 "/>
<path style=" stroke:none;fill-rule:nonzero;fill:rgb(100%,100%,100%);fill-opacity:1;" d="M 33.484375 80.917969 L 45.484375 80.917969 L 45.484375 98.917969 L 33.484375 98.917969 Z M 33.484375 80.917969 "/>
<g style="fill:rgb(100%,0%,0%);fill-opacity:1;">
  <use xlink:href="#glyph0-1" x="33.484375" y="94.532227"/>
</g>
<path style="fill:none;stroke-width:1.2;stroke-linecap:butt;stroke-linejoin:miter;stroke:rgb(0%,0%,0%);stroke-opacity:1;stroke-miterlimit:10;" d="M 54.859375 121.433594 L 89.839844 123.878906 "/>
<path style="fill:none;stroke-width:1.2;stroke-linecap:butt;stroke-linejoin:miter;stroke:rgb(0%,0%,0%);stroke-opacity:1;stroke-miterlimit:10;" d="M 57.78125 129.910156 L 85.765625 131.867188 "/>
<path style="fill:none;stroke-width:1.2;stroke-linecap:butt;stroke-linejoin:miter;stroke:rgb(0%,0%,0%);stroke-opacity:1;stroke-miterlimit:10;" d="M 35.25 150.507812 L 54.859375 121.433594 "/>
<path style="fill:none;stroke-width:1.2;stroke-linecap:butt;stroke-linejoin:miter;stroke:rgb(0%,0%,0%);stroke-opacity:1;stroke-miterlimit:10;" d="M 89.839844 123.878906 L 105.214844 155.398438 "/>
<path style="fill:none;stroke-width:1.2;stroke-linecap:butt;stroke-linejoin:miter;stroke:rgb(0%,0%,0%);stroke-opacity:1;stroke-miterlimit:10;" d="M 105.214844 155.398438 L 85.605469 184.472656 "/>
<path style="fill:none;stroke-width:1.2;stroke-linecap:butt;stroke-linejoin:miter;stroke:rgb(0%,0%,0%);stroke-opacity:1;stroke-miterlimit:10;" d="M 96.414062 153.691406 L 80.726562 176.949219 "/>
<path style="fill:none;stroke-width:1.2;stroke-linecap:butt;stroke-linejoin:miter;stroke:rgb(0%,0%,0%);stroke-opacity:1;stroke-miterlimit:10;" d="M 85.605469 184.472656 L 50.625 182.027344 "/>
<path style="fill:none;stroke-width:1.2;stroke-linecap:butt;stroke-linejoin:miter;stroke:rgb(0%,0%,0%);stroke-opacity:1;stroke-miterlimit:10;" d="M 85.605469 184.472656 L 93.292969 200.230469 "/>
<path style="fill:none;stroke-width:1.2;stroke-linecap:butt;stroke-linejoin:miter;stroke:rgb(100%,0%,0%);stroke-opacity:1;stroke-miterlimit:10;" d="M 93.292969 200.230469 L 100.976562 215.988281 "/>
<path style="fill:none;stroke-width:1.2;stroke-linecap:butt;stroke-linejoin:miter;stroke:rgb(0%,0%,0%);stroke-opacity:1;stroke-miterlimit:10;" d="M 50.625 182.027344 L 35.25 150.507812 "/>
<path style="fill:none;stroke-width:1.2;stroke-linecap:butt;stroke-linejoin:miter;stroke:rgb(0%,0%,0%);stroke-opacity:1;stroke-miterlimit:10;" d="M 56.5 175.257812 L 44.203125 150.042969 "/>
<path style="fill:none;stroke-width:1.2;stroke-linecap:butt;stroke-linejoin:miter;stroke:rgb(100%,0%,0%);stroke-opacity:1;stroke-miterlimit:10;" d="M 100.976562 215.988281 L 118.46875 217.210938 "/>
<path style="fill:none;stroke-width:1.2;stroke-linecap:butt;stroke-linejoin:miter;stroke:rgb(0%,0%,0%);stroke-opacity:1;stroke-miterlimit:10;" d="M 118.46875 217.210938 L 135.960938 218.433594 "/>
<path style=" stroke:none;fill-rule:nonzero;fill:rgb(100%,100%,100%);fill-opacity:1;" d="M 94.976562 206.988281 L 106.976562 206.988281 L 106.976562 224.988281 L 94.976562 224.988281 Z M 94.976562 206.988281 "/>
<g style="fill:rgb(100%,0%,0%);fill-opacity:1;">
  <use xlink:href="#glyph0-1" x="94.976562" y="220.602539"/>
</g>
<path style="fill:none;stroke-width:1.2;stroke-linecap:butt;stroke-linejoin:miter;stroke:rgb(0%,0%,0%);stroke-opacity:1;stroke-miterlimit:10;" d="M 135.960938 218.433594 L 143.648438 234.195312 "/>
<path style="fill:none;stroke-width:1.2;stroke-linecap:butt;stroke-linejoin:miter;stroke:rgb(0%,0%,100%);stroke-opacity:1;stroke-miterlimit:10;" d="M 143.648438 234.195312 L 151.332031 249.953125 "/>
<path style="fill:none;stroke-width:1.2;stroke-linecap:butt;stroke-linejoin:miter;stroke:rgb(0%,0%,0%);stroke-opacity:1;stroke-miterlimit:10;" d="M 144.914062 217.96875 L 151.0625 230.574219 "/>
<path style="fill:none;stroke-width:1.2;stroke-linecap:butt;stroke-linejoin:miter;stroke:rgb(0%,0%,100%);stroke-opacity:1;stroke-miterlimit:10;" d="M 151.0625 230.574219 L 157.210938 243.183594 "/>
<path style="fill:none;stroke-width:1.2;stroke-linecap:butt;stroke-linejoin:miter;stroke:rgb(0%,0%,100%);stroke-opacity:1;stroke-miterlimit:10;" d="M 155.570312 189.363281 L 145.765625 203.898438 "/>
<path style="fill:none;stroke-width:1.2;stroke-linecap:butt;stroke-linejoin:miter;stroke:rgb(0%,0%,0%);stroke-opacity:1;stroke-miterlimit:10;" d="M 145.765625 203.898438 L 135.960938 218.433594 "/>
<path style="fill:none;stroke-width:1.2;stroke-linecap:butt;stroke-linejoin:miter;stroke:rgb(0%,0%,100%);stroke-opacity:1;stroke-miterlimit:10;" d="M 151.332031 249.953125 L 168.824219 251.175781 "/>
<path style="fill:none;stroke-width:1.2;stroke-linecap:butt;stroke-linejoin:miter;stroke:rgb(0%,0%,0%);stroke-opacity:1;stroke-miterlimit:10;" d="M 168.824219 251.175781 L 186.316406 252.398438 "/>
<path style=" stroke:none;fill-rule:nonzero;fill:rgb(100%,100%,100%);fill-opacity:1;" d="M 146.332031 240.953125 L 157.332031 240.953125 L 157.332031 258.953125 L 146.332031 258.953125 Z M 146.332031 240.953125 "/>
<g style="fill:rgb(0%,0%,100%);fill-opacity:1;">
  <use xlink:href="#glyph0-2" x="146.332031" y="254.567383"/>
</g>
<path style="fill:none;stroke-width:1.2;stroke-linecap:butt;stroke-linejoin:miter;stroke:rgb(0%,0%,0%);stroke-opacity:1;stroke-miterlimit:10;" d="M 186.316406 252.398438 L 205.921875 223.324219 "/>
<path style="fill:none;stroke-width:1.2;stroke-linecap:butt;stroke-linejoin:miter;stroke:rgb(0%,0%,0%);stroke-opacity:1;stroke-miterlimit:10;" d="M 181.433594 244.875 L 197.121094 221.617188 "/>
<path style="fill:none;stroke-width:1.2;stroke-linecap:butt;stroke-linejoin:miter;stroke:rgb(0%,0%,0%);stroke-opacity:1;stroke-miterlimit:10;" d="M 205.921875 223.324219 L 190.550781 191.808594 "/>
<path style="fill:none;stroke-width:1.2;stroke-linecap:butt;stroke-linejoin:miter;stroke:rgb(0%,0%,100%);stroke-opacity:1;stroke-miterlimit:10;" d="M 240.90625 225.769531 L 223.414062 224.546875 "/>
<path style="fill:none;stroke-width:1.2;stroke-linecap:butt;stroke-linejoin:miter;stroke:rgb(0%,0%,0%);stroke-opacity:1;stroke-miterlimit:10;" d="M 223.414062 224.546875 L 205.921875 223.324219 "/>
<path style="fill:none;stroke-width:1.2;stroke-linecap:butt;stroke-linejoin:miter;stroke:rgb(0%,0%,0%);stroke-opacity:1;stroke-miterlimit:10;" d="M 190.550781 191.808594 L 173.058594 190.585938 "/>
<path style="fill:none;stroke-width:1.2;stroke-linecap:butt;stroke-linejoin:miter;stroke:rgb(0%,0%,100%);stroke-opacity:1;stroke-miterlimit:10;" d="M 173.058594 190.585938 L 155.570312 189.363281 "/>
<path style="fill:none;stroke-width:1.2;stroke-linecap:butt;stroke-linejoin:miter;stroke:rgb(0%,0%,0%);stroke-opacity:1;stroke-miterlimit:10;" d="M 186.476562 199.792969 L 172.484375 198.816406 "/>
<path style="fill:none;stroke-width:1.2;stroke-linecap:butt;stroke-linejoin:miter;stroke:rgb(0%,0%,100%);stroke-opacity:1;stroke-miterlimit:10;" d="M 172.484375 198.816406 L 158.492188 197.835938 "/>
<path style="fill:none;stroke-width:1.2;stroke-linecap:butt;stroke-linejoin:miter;stroke:rgb(0%,0%,0%);stroke-opacity:1;stroke-miterlimit:10;" d="M 190.550781 191.808594 L 200.355469 177.269531 "/>
<path style="fill:none;stroke-width:1.2;stroke-linecap:butt;stroke-linejoin:miter;stroke:rgb(0%,0%,100%);stroke-opacity:1;stroke-miterlimit:10;" d="M 200.355469 177.269531 L 210.160156 162.734375 "/>
<path style=" stroke:none;fill-rule:nonzero;fill:rgb(100%,100%,100%);fill-opacity:1;" d="M 150.570312 180.363281 L 161.570312 180.363281 L 161.570312 198.363281 L 150.570312 198.363281 Z M 150.570312 180.363281 "/>
<g style="fill:rgb(0%,0%,100%);fill-opacity:1;">
  <use xlink:href="#glyph0-2" x="150.570312" y="193.977539"/>
</g>
<path style="fill:none;stroke-width:1.2;stroke-linecap:butt;stroke-linejoin:miter;stroke:rgb(0%,0%,100%);stroke-opacity:1;stroke-miterlimit:10;" d="M 210.160156 162.734375 L 227.648438 163.957031 "/>
<path style="fill:none;stroke-width:1.2;stroke-linecap:butt;stroke-linejoin:miter;stroke:rgb(0%,0%,0%);stroke-opacity:1;stroke-miterlimit:10;" d="M 227.648438 163.957031 L 245.140625 165.179688 "/>
<path style="fill:none;stroke-width:1.2;stroke-linecap:butt;stroke-linejoin:miter;stroke:rgb(0%,0%,100%);stroke-opacity:1;stroke-miterlimit:10;" d="M 210.160156 162.734375 L 202.472656 146.976562 "/>
<path style="fill:none;stroke-width:1.2;stroke-linecap:butt;stroke-linejoin:miter;stroke:rgb(0%,0%,0%);stroke-opacity:1;stroke-miterlimit:10;" d="M 202.472656 146.976562 L 194.785156 131.21875 "/>
<path style=" stroke:none;fill-rule:nonzero;fill:rgb(100%,100%,100%);fill-opacity:1;" d="M 205.160156 153.734375 L 216.160156 153.734375 L 216.160156 171.734375 L 205.160156 171.734375 Z M 205.160156 153.734375 "/>
<g style="fill:rgb(0%,0%,100%);fill-opacity:1;">
  <use xlink:href="#glyph0-2" x="205.160156" y="167.348633"/>
</g>
<path style="fill:none;stroke-width:1.2;stroke-linecap:butt;stroke-linejoin:miter;stroke:rgb(0%,0%,0%);stroke-opacity:1;stroke-miterlimit:10;" d="M 248.5625 167.488281 L 258.367188 152.949219 "/>
<path style="fill:none;stroke-width:1.2;stroke-linecap:butt;stroke-linejoin:miter;stroke:rgb(100%,0%,0%);stroke-opacity:1;stroke-miterlimit:10;" d="M 258.367188 152.949219 L 268.171875 138.414062 "/>
<path style="fill:none;stroke-width:1.2;stroke-linecap:butt;stroke-linejoin:miter;stroke:rgb(0%,0%,0%);stroke-opacity:1;stroke-miterlimit:10;" d="M 241.722656 162.875 L 251.523438 148.335938 "/>
<path style="fill:none;stroke-width:1.2;stroke-linecap:butt;stroke-linejoin:miter;stroke:rgb(100%,0%,0%);stroke-opacity:1;stroke-miterlimit:10;" d="M 251.523438 148.335938 L 261.328125 133.800781 "/>
<path style="fill:none;stroke-width:1.2;stroke-linecap:butt;stroke-linejoin:miter;stroke:rgb(0%,0%,0%);stroke-opacity:1;stroke-miterlimit:10;" d="M 245.140625 165.179688 L 260.515625 196.699219 "/>
<path style=" stroke:none;fill-rule:nonzero;fill:rgb(100%,100%,100%);fill-opacity:1;" d="M 258.75 127.109375 L 270.75 127.109375 L 270.75 145.109375 L 258.75 145.109375 Z M 258.75 127.109375 "/>
<g style="fill:rgb(100%,0%,0%);fill-opacity:1;">
  <use xlink:href="#glyph0-1" x="258.75" y="140.723633"/>
</g>
<path style="fill:none;stroke-width:1.2;stroke-linecap:butt;stroke-linejoin:miter;stroke:rgb(0%,0%,0%);stroke-opacity:1;stroke-miterlimit:10;" d="M 260.515625 196.699219 L 250.710938 211.234375 "/>
<path style="fill:none;stroke-width:1.2;stroke-linecap:butt;stroke-linejoin:miter;stroke:rgb(0%,0%,100%);stroke-opacity:1;stroke-miterlimit:10;" d="M 250.710938 211.234375 L 240.90625 225.769531 "/>
<path style="fill:none;stroke-width:1.2;stroke-linecap:butt;stroke-linejoin:miter;stroke:rgb(0%,0%,0%);stroke-opacity:1;stroke-miterlimit:10;" d="M 251.714844 194.992188 L 243.871094 206.621094 "/>
<path style="fill:none;stroke-width:1.2;stroke-linecap:butt;stroke-linejoin:miter;stroke:rgb(0%,0%,100%);stroke-opacity:1;stroke-miterlimit:10;" d="M 243.871094 206.621094 L 236.027344 218.25 "/>
<path style=" stroke:none;fill-rule:nonzero;fill:rgb(100%,100%,100%);fill-opacity:1;" d="M 235.90625 216.769531 L 246.90625 216.769531 L 246.90625 234.769531 L 235.90625 234.769531 Z M 235.90625 216.769531 "/>
<g style="fill:rgb(0%,0%,100%);fill-opacity:1;">
  <use xlink:href="#glyph0-2" x="235.90625" y="230.383789"/>
</g>
<path style=" stroke:none;fill-rule:nonzero;fill:rgb(0%,0%,0%);fill-opacity:1;" d="M 214.394531 102.144531 L 189.65625 127.757812 L 199.917969 134.675781 Z M 214.394531 102.144531 "/>
<path style="fill:none;stroke-width:1.2;stroke-linecap:butt;stroke-linejoin:miter;stroke:rgb(0%,0%,0%);stroke-opacity:1;stroke-miterlimit:10;" d="M 214.394531 102.144531 L 202.402344 69.191406 "/>
<path style="fill:none;stroke-width:1.2;stroke-linecap:butt;stroke-linejoin:miter;stroke:rgb(100%,0%,0%);stroke-opacity:1;stroke-miterlimit:10;" d="M 249.441406 100.921875 L 231.917969 101.53125 "/>
<path style="fill:none;stroke-width:1.2;stroke-linecap:butt;stroke-linejoin:miter;stroke:rgb(0%,0%,0%);stroke-opacity:1;stroke-miterlimit:10;" d="M 231.917969 101.53125 L 214.394531 102.144531 "/>
<path style="fill:none;stroke-width:1.2;stroke-linecap:butt;stroke-linejoin:miter;stroke:rgb(0%,0%,0%);stroke-opacity:1;stroke-miterlimit:10;" d="M 202.402344 69.191406 L 230.035156 47.601562 "/>
<path style="fill:none;stroke-width:1.2;stroke-linecap:butt;stroke-linejoin:miter;stroke:rgb(0%,0%,0%);stroke-opacity:1;stroke-miterlimit:10;" d="M 230.035156 47.601562 L 259.105469 67.210938 "/>
<path style="fill:none;stroke-width:1.2;stroke-linecap:butt;stroke-linejoin:miter;stroke:rgb(0%,0%,0%);stroke-opacity:1;stroke-miterlimit:10;" d="M 259.105469 67.210938 L 254.273438 84.066406 "/>
<path style="fill:none;stroke-width:1.2;stroke-linecap:butt;stroke-linejoin:miter;stroke:rgb(100%,0%,0%);stroke-opacity:1;stroke-miterlimit:10;" d="M 254.273438 84.066406 L 249.441406 100.921875 "/>
<path style=" stroke:none;fill-rule:nonzero;fill:rgb(100%,100%,100%);fill-opacity:1;" d="M 243.441406 91.921875 L 255.441406 91.921875 L 255.441406 109.921875 L 243.441406 109.921875 Z M 243.441406 91.921875 "/>
<g style="fill:rgb(100%,0%,0%);fill-opacity:1;">
  <use xlink:href="#glyph0-1" x="243.441406" y="105.536133"/>
</g>
</g>
</svg>

<svg xmlns="http://www.w3.org/2000/svg" xmlns:xlink="http://www.w3.org/1999/xlink" width="300pt" height="300pt" viewBox="0 0 300 300"><defs><symbol overflow="visible"><path d="M.75 2.656v-13.234h7.5V2.656zm.844-.844h5.812V-9.733H1.594zm0 0"/></symbol><symbol overflow="visible" id="a"><path d="M5.906-9.938c-1.074 0-1.93.403-2.562 1.204-.625.804-.938 1.898-.938 3.28 0 1.376.313 2.466.938 3.266.633.805 1.488 1.204 2.562 1.204 1.07 0 1.922-.4 2.547-1.204.633-.8.953-1.89.953-3.265 0-1.383-.32-2.477-.953-3.28-.625-.802-1.476-1.204-2.547-1.204zm0-1.203c1.532 0 2.754.515 3.672 1.546.926 1.03 1.39 2.414 1.39 4.14 0 1.72-.464 3.095-1.39 4.126C8.66-.298 7.438.22 5.906.22c-1.53 0-2.76-.51-3.687-1.532C1.3-2.345.843-3.723.843-5.452c0-1.728.457-3.11 1.375-4.142.925-1.03 2.155-1.547 3.686-1.547zm0 0"/></symbol><symbol overflow="visible" id="b"><path d="M1.47-10.938h2L8.31-1.78v-9.158H9.75V0h-2L2.906-9.14V0H1.47zm0 0"/></symbol></defs><g><path fill="#fff" d="M0 0h300v300H0z"/><path d="M59.094 60.844l-9.805 14.54" stroke-width="1.2" stroke="#000" stroke-miterlimit="10" fill="none"/><path d="M49.29 75.383l-9.806 14.535M39.484 89.918l7.688 15.758" stroke-width="1.2" stroke="#f00" stroke-miterlimit="10" fill="none"/><path d="M47.172 105.676l7.687 15.758" stroke-width="1.2" stroke="#000" stroke-miterlimit="10" fill="none"/><path d="M33.484 80.918h12v18h-12zm0 0" fill="#fff"/><use xlink:href="#a" x="33.484" y="94.532" fill="#f00"/><path d="M54.86 121.434l34.98 2.445M57.78 129.91l27.986 1.957M35.25 150.508l19.61-29.074M89.84 123.88l15.375 31.518M105.215 155.398l-19.61 29.075M96.414 153.69l-15.687 23.26M85.605 184.473l-34.98-2.446M85.605 184.473l7.688 15.757" stroke-width="1.2" stroke="#000" stroke-miterlimit="10" fill="none"/><path d="M93.293 200.23l7.684 15.758" stroke-width="1.2" stroke="#f00" stroke-miterlimit="10" fill="none"/><path d="M50.625 182.027l-15.375-31.52M56.5 175.258l-12.297-25.215" stroke-width="1.2" stroke="#000" stroke-miterlimit="10" fill="none"/><path d="M100.977 215.988l17.492 1.223" stroke-width="1.2" stroke="#f00" stroke-miterlimit="10" fill="none"/><path d="M118.47 217.21l17.49 1.224" stroke-width="1.2" stroke="#000" stroke-miterlimit="10" fill="none"/><path d="M94.977 206.988h12v18h-12zm0 0" fill="#fff"/><use xlink:href="#a" x="94.977" y="220.603" fill="#f00"/><path d="M135.96 218.434l7.688 15.76" stroke-width="1.2" stroke="#000" stroke-miterlimit="10" fill="none"/><path d="M143.648 234.195l7.684 15.758" stroke-width="1.2" stroke="#00f" stroke-miterlimit="10" fill="none"/><path d="M144.914 217.97l6.15 12.604" stroke-width="1.2" stroke="#000" stroke-miterlimit="10" fill="none"/><path d="M151.063 230.574l6.148 12.61M155.57 189.363l-9.804 14.535" stroke-width="1.2" stroke="#00f" stroke-miterlimit="10" fill="none"/><path d="M145.766 203.898l-9.805 14.536" stroke-width="1.2" stroke="#000" stroke-miterlimit="10" fill="none"/><path d="M151.332 249.953l17.492 1.223" stroke-width="1.2" stroke="#00f" stroke-miterlimit="10" fill="none"/><path d="M168.824 251.176l17.492 1.222" stroke-width="1.2" stroke="#000" stroke-miterlimit="10" fill="none"/><path d="M146.332 240.953h11v18h-11zm0 0" fill="#fff"/><use xlink:href="#b" x="146.332" y="254.567" fill="#00f"/><path d="M186.316 252.398l19.606-29.074M181.434 244.875l15.687-23.258M205.922 223.324l-15.37-31.515" stroke-width="1.2" stroke="#000" stroke-miterlimit="10" fill="none"/><path d="M240.906 225.77l-17.492-1.223" stroke-width="1.2" stroke="#00f" stroke-miterlimit="10" fill="none"/><path d="M223.414 224.547l-17.492-1.223M190.55 191.81l-17.49-1.224" stroke-width="1.2" stroke="#000" stroke-miterlimit="10" fill="none"/><path d="M173.06 190.586l-17.49-1.223" stroke-width="1.2" stroke="#00f" stroke-miterlimit="10" fill="none"/><path d="M186.477 199.793l-13.993-.977" stroke-width="1.2" stroke="#000" stroke-miterlimit="10" fill="none"/><path d="M172.484 198.816l-13.992-.98" stroke-width="1.2" stroke="#00f" stroke-miterlimit="10" fill="none"/><path d="M190.55 191.81l9.805-14.54" stroke-width="1.2" stroke="#000" stroke-miterlimit="10" fill="none"/><path d="M200.355 177.27l9.805-14.536" stroke-width="1.2" stroke="#00f" stroke-miterlimit="10" fill="none"/><path d="M150.57 180.363h11v18h-11zm0 0" fill="#fff"/><use xlink:href="#b" x="150.57" y="193.978" fill="#00f"/><path d="M210.16 162.734l17.488 1.223" stroke-width="1.2" stroke="#00f" stroke-miterlimit="10" fill="none"/><path d="M227.648 163.957l17.493 1.223" stroke-width="1.2" stroke="#000" stroke-miterlimit="10" fill="none"/><path d="M210.16 162.734l-7.687-15.757" stroke-width="1.2" stroke="#00f" stroke-miterlimit="10" fill="none"/><path d="M202.473 146.977l-7.688-15.758" stroke-width="1.2" stroke="#000" stroke-miterlimit="10" fill="none"/><path d="M205.16 153.734h11v18h-11zm0 0" fill="#fff"/><use xlink:href="#b" x="205.16" y="167.349" fill="#00f"/><path d="M248.563 167.488l9.804-14.54" stroke-width="1.2" stroke="#000" stroke-miterlimit="10" fill="none"/><path d="M258.367 152.95l9.805-14.536" stroke-width="1.2" stroke="#f00" stroke-miterlimit="10" fill="none"/><path d="M241.723 162.875l9.8-14.54" stroke-width="1.2" stroke="#000" stroke-miterlimit="10" fill="none"/><path d="M251.523 148.336l9.805-14.535" stroke-width="1.2" stroke="#f00" stroke-miterlimit="10" fill="none"/><path d="M245.14 165.18l15.376 31.52" stroke-width="1.2" stroke="#000" stroke-miterlimit="10" fill="none"/><path d="M258.75 127.11h12v18h-12zm0 0" fill="#fff"/><use xlink:href="#a" x="258.75" y="140.724" fill="#f00"/><path d="M260.516 196.7l-9.805 14.534" stroke-width="1.2" stroke="#000" stroke-miterlimit="10" fill="none"/><path d="M250.71 211.234l-9.804 14.536" stroke-width="1.2" stroke="#00f" stroke-miterlimit="10" fill="none"/><path d="M251.715 194.992l-7.844 11.63" stroke-width="1.2" stroke="#000" stroke-miterlimit="10" fill="none"/><path d="M243.87 206.62l-7.843 11.63" stroke-width="1.2" stroke="#00f" stroke-miterlimit="10" fill="none"/><path d="M235.906 216.77h11v18h-11zm0 0" fill="#fff"/><use xlink:href="#b" x="235.906" y="230.384" fill="#00f"/><path d="M214.395 102.145l-24.74 25.613 10.263 6.918zm0 0"/><path d="M214.395 102.145L202.402 69.19" stroke-width="1.2" stroke="#000" stroke-miterlimit="10" fill="none"/><path d="M249.44 100.922l-17.522.61" stroke-width="1.2" stroke="#f00" stroke-miterlimit="10" fill="none"/><path d="M231.918 101.53l-17.523.615M202.402 69.19l27.633-21.588M230.035 47.602l29.07 19.61M259.105 67.21l-4.832 16.856" stroke-width="1.2" stroke="#000" stroke-miterlimit="10" fill="none"/><path d="M254.273 84.066l-4.832 16.856" stroke-width="1.2" stroke="#f00" stroke-miterlimit="10" fill="none"/><path d="M243.44 91.922h12v18h-12zm0 0" fill="#fff"/><use xlink:href="#a" x="243.441" y="105.536" fill="#f00"/></g></svg>
